Simply-Purple-Circles/scalable/apps/pcbcalculator.svg

<svg xmlns="http://www.w3.org/2000/svg" width="48" height="48" viewBox="0 0 12.7 12.7"><path d="M6.344.072a6.29 6.29 0 0 0-6.29 6.29 6.29 6.29 0 0 0 6.29 6.289 6.29 6.29 0 0 0 6.29-6.29 6.29 6.29 0 0 0-6.29-6.29zm-.018.937a5.407 5.407 0 0 1 5.407 5.407 5.407 5.407 0 0 1-5.407 5.407A5.407 5.407 0 0 1 .92 6.416 5.407 5.407 0 0 1 6.326 1.01zM3.64 2.516a.375.375 0 0 0-.376.376v6.916c0 .21.168.376.376.376h5.42a.375.375 0 0 0 .376-.376V2.892a.375.375 0 0 0-.376-.376zm.334.651v.001h4.752c.126 0 .226.12.226.27V4.96c0 .15-.1.27-.226.27H3.974a.222.272 0 0 1-.226-.27V3.436c0-.148.1-.269.226-.269zm.312 2.603h.71c.14 0 .254.114.254.255v.467a.255.255 0 0 1-.254.255h-.71a.256.256 0 0 1-.256-.255v-.467c0-.14.115-.254.256-.254zm3.42 0h.708c.143 0 .256.114.256.255v.467a.255.255 0 0 1-.256.255h-.71a.255.255 0 0 1-.254-.255v-.467c0-.14.113-.254.254-.254zm-1.71 0h.71c.14 0 .254.116.254.257v.466a.255.255 0 0 1-.254.254h-.71a.255.255 0 0 1-.256-.254v-.466c0-.142.113-.256.255-.256zm-1.71 1.467h.71c.14 0 .254.113.254.256v.466a.255.255 0 0 1-.254.255h-.71a.256.256 0 0 1-.256-.255v-.466c0-.143.115-.256.256-.256zm1.71 0h.71c.14 0 .254.115.254.256v.466a.255.255 0 0 1-.254.255h-.71a.255.255 0 0 1-.256-.255v-.466c0-.141.113-.255.255-.255zm1.708 0h.711c.142 0 .255.113.255.256v.466a.255.255 0 0 1-.256.255h-.71a.255.255 0 0 1-.254-.255v-.466c0-.143.113-.256.254-.256zM4.286 8.703h.71c.14 0 .254.113.254.256v.464a.255.255 0 0 1-.254.256h-.71a.256.256 0 0 1-.256-.256V8.96c0-.143.115-.256.256-.256zm1.71 0h.71c.14 0 .254.115.254.256v.466a.255.255 0 0 1-.254.256h-.71a.255.255 0 0 1-.256-.256v-.466c0-.141.113-.256.255-.256zm1.708 0h.711c.142 0 .255.113.255.256v.464a.255.255 0 0 1-.256.256h-.71a.255.255 0 0 1-.254-.256V8.96c0-.143.113-.256.254-.256z" fill="#963996"/><path d="M3.777 5.335l1.37-2.266 1.156 1.676 1.841-1.133 1.039.637" fill="none" stroke="#963996" stroke-width=".265"/></svg>

<?xml version="1.0" encoding="UTF-8" standalone="no"?>
<svg
   xmlns:dc="http://purl.org/dc/elements/1.1/"
   xmlns:cc="http://creativecommons.org/ns#"
   xmlns:rdf="http://www.w3.org/1999/02/22-rdf-syntax-ns#"
   xmlns:svg="http://www.w3.org/2000/svg"
   xmlns="http://www.w3.org/2000/svg"
   xmlns:sodipodi="http://sodipodi.sourceforge.net/DTD/sodipodi-0.dtd"
   xmlns:inkscape="http://www.inkscape.org/namespaces/inkscape"
   width="48"
   height="48"
   viewBox="0 0 12.7 12.7"
   version="1.1"
   id="svg6"
   sodipodi:docname="pcbcalculator.svg"
   inkscape:version="0.92.4 (5da689c313, 2019-01-14)">
  <metadata
     id="metadata12">
    <rdf:RDF>
      <cc:Work
         rdf:about="">
        <dc:format>image/svg+xml</dc:format>
        <dc:type
           rdf:resource="http://purl.org/dc/dcmitype/StillImage" />
        <dc:title></dc:title>
      </cc:Work>
    </rdf:RDF>
  </metadata>
  <defs
     id="defs10" />
  <sodipodi:namedview
     pagecolor="#ffffff"
     bordercolor="#666666"
     borderopacity="1"
     objecttolerance="10"
     gridtolerance="10"
     guidetolerance="10"
     inkscape:pageopacity="0"
     inkscape:pageshadow="2"
     inkscape:window-width="1087"
     inkscape:window-height="480"
     id="namedview8"
     showgrid="false"
     inkscape:zoom="4.9166667"
     inkscape:cx="2.1355932"
     inkscape:cy="24"
     inkscape:window-x="0"
     inkscape:window-y="25"
     inkscape:window-maximized="0"
     inkscape:current-layer="svg6" />
  <path
     d="m 6.344,0.072 a 6.29,6.29 0 0 0 -6.29,6.29 6.29,6.29 0 0 0 6.29,6.289 6.29,6.29 0 0 0 6.29,-6.29 6.29,6.29 0 0 0 -6.29,-6.29 z M 6.326,1.009 A 5.407,5.407 0 0 1 11.733,6.416 5.407,5.407 0 0 1 6.326,11.823 5.407,5.407 0 0 1 0.92,6.416 5.407,5.407 0 0 1 6.326,1.01 Z M 3.64,2.516 A 0.375,0.375 0 0 0 3.264,2.892 v 6.916 c 0,0.21 0.168,0.376 0.376,0.376 H 9.06 A 0.375,0.375 0 0 0 9.436,9.808 V 2.892 A 0.375,0.375 0 0 0 9.06,2.516 Z m 0.334,0.651 v 0.001 h 4.752 c 0.126,0 0.226,0.12 0.226,0.27 V 4.96 c 0,0.15 -0.1,0.27 -0.226,0.27 H 3.974 A 0.222,0.272 0 0 1 3.748,4.96 V 3.436 c 0,-0.148 0.1,-0.269 0.226,-0.269 z M 4.286,5.77 h 0.71 c 0.14,0 0.254,0.114 0.254,0.255 V 6.492 A 0.255,0.255 0 0 1 4.996,6.747 H 4.286 A 0.256,0.256 0 0 1 4.03,6.492 V 6.025 c 0,-0.14 0.115,-0.254 0.256,-0.254 z m 3.42,0 h 0.708 c 0.143,0 0.256,0.114 0.256,0.255 V 6.492 A 0.255,0.255 0 0 1 8.414,6.747 H 7.704 A 0.255,0.255 0 0 1 7.45,6.492 V 6.025 c 0,-0.14 0.113,-0.254 0.254,-0.254 z m -1.71,0 h 0.71 c 0.14,0 0.254,0.116 0.254,0.257 V 6.493 A 0.255,0.255 0 0 1 6.706,6.747 H 5.996 A 0.255,0.255 0 0 1 5.74,6.493 V 6.027 c 0,-0.142 0.113,-0.256 0.255,-0.256 z m -1.71,1.467 h 0.71 c 0.14,0 0.254,0.113 0.254,0.256 V 7.959 A 0.255,0.255 0 0 1 4.996,8.214 H 4.286 A 0.256,0.256 0 0 1 4.03,7.959 V 7.493 C 4.03,7.35 4.145,7.237 4.286,7.237 Z m 1.71,0 h 0.71 c 0.14,0 0.254,0.115 0.254,0.256 V 7.959 A 0.255,0.255 0 0 1 6.706,8.214 H 5.996 A 0.255,0.255 0 0 1 5.74,7.959 V 7.493 c 0,-0.141 0.113,-0.255 0.255,-0.255 z m 1.708,0 h 0.711 c 0.142,0 0.255,0.113 0.255,0.256 V 7.959 A 0.255,0.255 0 0 1 8.414,8.214 H 7.704 A 0.255,0.255 0 0 1 7.45,7.959 V 7.493 C 7.45,7.35 7.563,7.237 7.704,7.237 Z M 4.286,8.703 h 0.71 c 0.14,0 0.254,0.113 0.254,0.256 V 9.423 A 0.255,0.255 0 0 1 4.996,9.679 H 4.286 A 0.256,0.256 0 0 1 4.03,9.423 V 8.96 c 0,-0.143 0.115,-0.256 0.256,-0.256 z m 1.71,0 h 0.71 c 0.14,0 0.254,0.115 0.254,0.256 V 9.425 A 0.255,0.255 0 0 1 6.706,9.681 H 5.996 A 0.255,0.255 0 0 1 5.74,9.425 V 8.959 c 0,-0.141 0.113,-0.256 0.255,-0.256 z m 1.708,0 h 0.711 c 0.142,0 0.255,0.113 0.255,0.256 V 9.423 A 0.255,0.255 0 0 1 8.414,9.679 H 7.704 A 0.255,0.255 0 0 1 7.45,9.423 V 8.96 c 0,-0.143 0.113,-0.256 0.254,-0.256 z"
     id="path2"
     inkscape:connector-curvature="0"
     style="fill:#963996" />
  <path
     d="M 3.777,5.335 5.147,3.069 6.303,4.745 8.144,3.612 9.183,4.249"
     id="path4"
     inkscape:connector-curvature="0"
     style="fill:none;stroke:#963996;stroke-width:0.26499999" />
</svg>
